!!!id: EG044
!!!page: 115-117
!!!COM: Anonymous
!!!LYR: Anonymous
!!!PTL@@FR: Chansons Populaires du Canada
!!!OTL@@FR: Bal chez boulé
!!!PUB: G. E. Desbarats
!!!YEM:
!!!PDT: 1865
!!!SMA:
!!!OMD:
!!!AGN-Laforte:
!!!AGN-type:
!!!AGN-rime:
**kern
*clefG2
*k[b-]
*F:
*M3/8
*
*
8f
=1
4a
8a
=2
4cc
8a
=3
4a
8g
=4
4a
8a
!!LO:PB:g=original
=5
4cc
8a
=6
4a
8a
=7
4cc
8a
=8
4cc
8a
=9
4cc
8a
!!LO:PB:g=original
=10
4cc
8a
=11
4cc
8a
=12
4.f
=13
4a
8g
=14
8a
8b-/
8cc
!!LO:PB:g=original
=15
4dd
8cc
=16
8dd
8ee
8ff
=17
4cc
8a
=18
4f
=:|!
8r
==||
*
*
==|
!!!RNB: Final eighth notes of mm.7 & 8 also have an eighth note in an upper voice on 'cc' above them in original
*-
